resources/haticons/SVG/timelapse.svg

<!-- Generated by IcoMoon.io -->
<svg version="1.1" xmlns="http://www.w3.org/2000/svg" width="24" height="24" viewBox="0 0 24 24">
<title>timelapse</title>
<path d="M12 20.016q3.281 0 5.648-2.367t2.367-5.648-2.367-5.648-5.648-2.367-5.648 2.367-2.367 5.648 2.367 5.648 5.648 2.367zM12 2.016q4.125 0 7.055 2.93t2.93 7.055-2.93 7.055-7.055 2.93-7.055-2.93-2.93-7.055 2.93-7.055 7.055-2.93zM16.219 7.781q0.75 0.75 1.266 1.969t0.516 2.25-0.492 2.25-1.242 1.969q-1.734 1.781-4.219 1.781t-4.266-1.781l4.219-4.219v-6q1.031 0 2.25 0.516t1.969 1.266z"></path>
</svg>

<svg xmlns="http://www.w3.org/2000/svg" width="24" height="24"><path d="M12 20.016q3.281 0 5.648-2.367t2.367-5.648-2.367-5.648T12 3.986 6.352 6.353t-2.367 5.648 2.367 5.648T12 20.016zm0-18q4.125 0 7.055 2.93t2.93 7.055-2.93 7.055T12 21.986t-7.055-2.93-2.93-7.055 2.93-7.055T12 2.016zm4.219 5.765q.75.75 1.266 1.969t.516 2.25-.492 2.25-1.242 1.969Q14.533 18 12.048 18t-4.266-1.781L12.001 12V6q1.031 0 2.25.516t1.969 1.266z"/></svg>
